!! 00000] TT[00
!! NN
!!!OTL: Man gan niu, 1)
!!!ARE: Asia, China,ÿAnhui, Anqing
!! Ethnic Group: Han
!! III, 578
!!!SCT: C0351
!!!YEM: Copyright 1995, estate of Helmut Schaffrath.
**kern
*ICvox
*Ivox
*M2/4
*k[f#c#]
*D:
{8a
4a
16b
16dd
=1
8dd
4.ee
=2
8ee
8b
4dd
=3
16b
[8.a
8a]
16a
16b}
=4
{8ee
8b
8b
8b
=5
2dd
=6
8b
16b
16a
[4a
=7
2a]}
=8
{8a
4a
16b
16dd
=9
8dd
4.ee
=10
8ee
8b
4dd
=11
16b
[8.a
8a]
16a
16b}
=12
{8ee
8b
8b
8b
=13
2dd
=14
8b
16b
16a
[4a
=15
2a]}
=16
{8a
4a
16b
16dd
=17
8dd
4.ee
=18
8ee
8b
4dd
=19
16b
[8.a
8a]
16a
16b}
=20
{8ee
8b
8b
8b
=21
2dd
=22
8b
16b
16a
[4a
=23
2a]
=24
2b}
==
!!!AGN: Shange, Manganniu. Biaoda aiqing
!! Wenig Verzierungen, Fermaten, Glissandi.
!!!ONB: ESAC (Essen Associative Code) Database: CHINA
!!!AMT: simple duple
!!!AIN: vox
!!!EED: Helmut Schaffrath
!!!EEV: 1.0
*-
!!!ONB: Tied note syntax fixed by Craig Sapp, 2004/05/03/
